src/css/fonts/SVGs/socials/instagram.svg

<?xml version="1.0" encoding="UTF-8"?>
<svg xmlns="http://www.w3.org/2000/svg" xmlns:xlink="http://www.w3.org/1999/xlink" width="48pt" height="48pt" viewBox="0 0 48 48" version="1.1">
<g id="surface1">
<path style=" stroke:none;fill-rule:nonzero;fill:black;fill-opacity:1;" d="M 15.558594 0 C 21.226562 0 26.894531 0 32.558594 0 C 33.21875 0.0585938 33.878906 0.125 34.535156 0.167969 C 37.921875 0.394531 41.058594 1.261719 43.648438 3.605469 C 46.570312 6.246094 47.84375 9.667969 47.910156 13.46875 C 48.035156 20.515625 48.019531 27.5625 47.914062 34.609375 C 47.863281 37.964844 46.835938 41.070312 44.507812 43.628906 C 41.882812 46.523438 38.488281 47.8125 34.710938 47.878906 C 27.609375 48.003906 20.5 48.078125 13.402344 47.867188 C 5.921875 47.652344 1.152344 43.035156 0.28125 35.636719 C 0.160156 34.609375 0.09375 33.574219 0 32.542969 C 0 26.878906 0 21.214844 0 15.550781 C 0.0585938 14.867188 0.136719 14.179688 0.167969 13.496094 C 0.535156 5.984375 5.015625 1.164062 12.472656 0.28125 C 13.496094 0.15625 14.527344 0.09375 15.558594 0 Z M 24.109375 4.492188 C 20.742188 4.492188 17.375 4.425781 14.011719 4.515625 C 11.371094 4.585938 8.882812 5.226562 6.960938 7.257812 C 5.132812 9.1875 4.566406 11.585938 4.507812 14.105469 C 4.398438 19.070312 4.355469 24.035156 4.363281 29.003906 C 4.363281 31.214844 4.4375 33.4375 4.675781 35.636719 C 5.117188 39.707031 7.53125 42.386719 11.378906 43.234375 C 12.390625 43.457031 13.441406 43.582031 14.476562 43.601562 C 19.203125 43.679688 23.929688 43.746094 28.660156 43.738281 C 30.980469 43.734375 33.3125 43.667969 35.617188 43.421875 C 40.117188 42.9375 42.964844 40.078125 43.449219 35.574219 C 43.6875 33.378906 43.757812 31.152344 43.757812 28.941406 C 43.761719 23.976562 43.761719 19.007812 43.601562 14.042969 C 43.40625 7.949219 40.148438 4.722656 34.042969 4.511719 C 30.734375 4.398438 27.421875 4.492188 24.109375 4.492188 Z M 24.109375 4.492188 "/>
<path style=" stroke:none;fill-rule:nonzero;fill:black;fill-opacity:1;" d="M 11.707031 24.046875 C 11.707031 17.183594 17.214844 11.691406 24.097656 11.699219 C 30.914062 11.707031 36.410156 17.214844 36.410156 24.046875 C 36.410156 30.910156 30.902344 36.398438 24.019531 36.394531 C 17.203125 36.382812 11.707031 30.875 11.707031 24.046875 Z M 24.097656 32.058594 C 28.496094 32.039062 32.082031 28.425781 32.074219 24.027344 C 32.066406 19.628906 28.457031 16.035156 24.058594 16.03125 C 19.628906 16.03125 16.011719 19.671875 16.039062 24.101562 C 16.070312 28.496094 19.695312 32.074219 24.097656 32.058594 Z M 24.097656 32.058594 "/>
<path style=" stroke:none;fill-rule:nonzero;fill:black;fill-opacity:1;" d="M 39.789062 11.191406 C 39.796875 12.804688 38.511719 14.101562 36.898438 14.101562 C 35.296875 14.101562 33.996094 12.789062 34.007812 11.1875 C 34.019531 9.609375 35.285156 8.34375 36.863281 8.324219 C 38.488281 8.308594 39.78125 9.574219 39.789062 11.191406 Z M 39.789062 11.191406 "/>
</g>
</svg>

<svg xmlns="http://www.w3.org/2000/svg" viewBox="0 0 48 48">
  <path d="M15.559 0h17c.66.059 1.32.125 1.976.168 3.387.227 6.524 1.094 9.113 3.437 2.922 2.641 4.196 6.063 4.262 9.864.125 7.047.11 14.094.004 21.14-.05 3.356-1.078 6.461-3.406 9.02-2.625 2.894-6.02 4.184-9.797 4.25-7.102.125-14.211.2-21.309-.012-7.48-.215-12.25-4.832-13.12-12.23C.16 34.609.093 33.574 0 32.543V15.551c.059-.684.137-1.371.168-2.055C.535 5.984 5.016 1.164 12.473.281 13.496.156 14.527.094 15.559 0Zm8.55 4.492c-3.367 0-6.734-.066-10.097.024-2.64.07-5.13.71-7.051 2.742-1.828 1.93-2.395 4.328-2.453 6.847-.11 4.965-.153 9.93-.145 14.899 0 2.21.074 4.433.313 6.633.441 4.07 2.855 6.75 6.703 7.597a15.9 15.9 0 0 0 3.098.368c4.726.078 9.453.144 14.183.136 2.32-.004 4.652-.07 6.957-.316 4.5-.484 7.348-3.344 7.832-7.848.239-2.195.309-4.422.309-6.633.004-4.964.004-9.933-.156-14.898-.196-6.094-3.454-9.32-9.559-9.531-3.309-.114-6.621-.02-9.934-.02Zm0 0"/>
  <path d="M11.707 24.047c0-6.863 5.508-12.356 12.39-12.348 6.817.008 12.313 5.516 12.313 12.348 0 6.863-5.508 12.351-12.39 12.348-6.817-.012-12.313-5.52-12.313-12.348Zm12.39 8.012c4.4-.02 7.985-3.633 7.977-8.032-.008-4.398-3.617-7.992-8.015-7.996-4.43 0-8.047 3.64-8.02 8.07.031 4.395 3.656 7.973 8.059 7.958ZM39.79 11.191a2.881 2.881 0 0 1-2.892 2.91 2.897 2.897 0 0 1-2.89-2.914 2.881 2.881 0 0 1 2.855-2.863c1.625-.015 2.918 1.25 2.926 2.867Zm0 0"/>
</svg>
